assets/icons/Liberty.svg

<?xml version="1.0" encoding="UTF-8"?>
<svg width="40px" height="72px" viewBox="0 0 40 72" version="1.1" xmlns="http://www.w3.org/2000/svg" xmlns:xlink="http://www.w3.org/1999/xlink">
    <title>Liberty</title>
    <g id="⌚️-iOS-Clock-App" stroke="none" stroke-width="1" fill="none" fill-rule="evenodd">
        <g id="iOS-Clock---Light" transform="translate(-44.000000, -692.000000)" fill="#ECEFF5" fill-rule="nonzero">
            <g id="New-York" transform="translate(20.000000, 612.000000)">
                <g id="Liberty" transform="translate(24.000000, 80.000000)">
                    <path d="M11.755,41.9221429 C11.1411571,41.88029 10.611,42.3406714 10.5552143,42.9545 L10.4575571,44.2100714 C10.4157043,44.8239143 10.8760857,45.3540714 11.4899143,45.4098571 L11.5736214,45.4098571 C12.1595571,45.4098571 12.6478357,44.9634286 12.6896929,44.3775 L12.78735,43.1219286 C12.8292029,42.5080857 12.3688214,41.964 11.7549929,41.9221429 L11.755,41.9221429 Z" id="Path"></path>
                    <path d="M4.16571429,7.98 L4.69585,7.98 L5.19807857,25.6142857 L5.04462143,25.7398429 C4.7098,26.0328143 4.58424286,26.5071286 4.72375,26.9257 C6.36996429,32.0038429 7.70925,33.8592714 11.0993214,35.4499857 L10.80635,39.5515571 C10.7644971,40.1654 11.2248786,40.6955571 11.8387071,40.7513429 L11.9224143,40.7513429 C12.50835,40.7513429 12.9966286,40.3049143 13.0384857,39.7189857 L13.4012071,34.8362 C13.4291086,34.3618714 13.1640429,33.9154143 12.7315643,33.7340571 C9.74606429,32.4645571 8.62999286,31.4182 7.09542143,26.9399857 L10.0809214,24.3312 L10.7784643,23.7173571 L11.83875,24.37305 C12.4525929,24.7497214 13.1501071,24.9450357 13.8616071,24.9450357 L18.9118214,24.9450357 L13.7081071,31.5298929 C13.3314357,32.0181714 13.4151357,32.71575 13.8894714,33.0923929 C14.0987357,33.2598071 14.3359,33.3295571 14.5870143,33.3295571 C14.9218357,33.3295571 15.2427071,33.19005 15.4659429,32.9110286 L19.9163,27.2748857 L19.6651857,32.1716714 C19.6372843,32.7855143 20.1116143,33.3156714 20.7254714,33.3435286 L20.7533736,33.3435286 L20.7673243,33.3435286 L20.8370786,33.3435286 C21.4090643,33.3295771 21.8973643,32.8692 21.9252214,32.2832429 L22.2600429,25.2798857 C24.6037571,26.2006714 26.3058286,28.3909571 26.5429714,30.9578857 L26.5429714,30.9857871 L27.1010071,35.8685729 C27.0452036,36.02203 27.0312529,36.1894443 27.0591543,36.3568514 L28.0775829,44.4204229 L28.4821614,48.01978 L21.0600186,50.2379943 L21.6738614,37.6265657 L21.7436157,36.3012086 C21.92498,35.88268 21.8273229,35.3804229 21.4785514,35.0595657 C21.2692871,34.8642514 21.0042229,34.7665943 20.7391229,34.7526443 L20.69727,34.7526443 C20.2368914,34.7247421 19.8323414,34.9898086 19.6369843,35.3804371 L16.3585557,38.8681514 C15.9400271,39.31458 15.9539771,40.02608 16.4143593,40.44458 C16.6236236,40.6398943 16.9026379,40.7515014 17.181645,40.7515014 C17.4746164,40.7515014 17.7815307,40.6398943 17.9907879,40.40273 L19.3719307,38.9239443 L18.7441379,51.7168014 L18.7441379,51.7307521 L18.7441379,51.8284093 L18.7441379,51.8563107 C18.7441379,51.8981636 18.7580886,51.9400179 18.7580886,51.9818679 L18.7580886,51.9958186 L18.7580886,52.02372 C18.7580886,52.0516221 18.7720393,52.0795236 18.78599,52.1074271 L18.78599,52.1213779 C18.78599,52.1353286 18.78599,52.1353286 18.7999407,52.1492793 C18.8138921,52.1771814 18.8138921,52.2050836 18.8278429,52.2329864 C18.8278429,52.2469371 18.8278429,52.2469371 18.8417936,52.2608879 C18.8417936,52.2608879 18.8417936,52.2748393 18.855745,52.2748393 C18.8696957,52.3027407 18.8836464,52.3306429 18.8975971,52.3585464 C18.8975971,52.3585464 18.8975971,52.3724971 18.9115479,52.3724971 C18.9534007,52.4422521 19.009205,52.5120043 19.065005,52.5678114 L19.0789564,52.5817621 C19.0929071,52.5957129 19.0929071,52.5957129 19.1068579,52.6096643 L19.1487107,52.6515171 L22.3713536,55.3998743 C20.4182107,56.8089457 16.3724964,59.6967314 13.3592107,61.8870171 C12.8569821,62.2497386 12.7453679,62.9473029 13.1080964,63.4495171 C13.3313107,63.7564386 13.6661321,63.9098957 14.0148821,63.9098957 C14.2380964,63.9098957 14.4752607,63.8401414 14.670575,63.7006314 C18.7721464,60.74306 24.7712893,56.43206 24.8270036,56.3906314 C24.8549057,56.3766807 24.8828079,56.3487793 24.8967586,56.3348286 C24.9107093,56.3208771 24.9107093,56.3208771 24.92466,56.3069264 C24.9525621,56.2929757 24.9665129,56.2650736 24.9804636,56.2511229 C24.994415,56.2371721 24.994415,56.2371721 25.0083657,56.2232214 C25.0362671,56.1953193 25.0641693,56.1534664 25.07812,56.1255643 C25.07812,56.1116136 25.0920707,56.1116136 25.0920707,56.0976621 C25.1060221,56.0697607 25.1199729,56.0418586 25.1478743,56.013955 C25.1478743,56.0000043 25.161825,56.0000043 25.161825,55.9860529 C25.1757764,55.9581514 25.1897271,55.9302493 25.2036779,55.9023457 C25.2036779,55.888395 25.2176293,55.8744436 25.2176293,55.8744436 C25.23158,55.8465421 25.23158,55.81864 25.2455307,55.7907364 C25.2455307,55.7767857 25.2455307,55.7628343 25.2594814,55.7628343 C25.2734321,55.7349329 25.2734321,55.69308 25.2734321,55.6512271 L25.2734321,55.6372764 C25.2734321,55.5954236 25.2873836,55.5535693 25.2873836,55.5117193 L25.2873836,55.4977679 L25.2873836,51.4380536 L26.6266693,51.0613821 L27.2823621,62.4870964 C27.3102643,63.0869821 27.8124979,63.5333821 28.3984336,63.5333821 L28.4681886,63.5333821 C29.0820314,63.49153 29.5563314,62.9753464 29.5144743,62.361525 L28.8308814,50.3222393 L30.0167386,49.9734679 C30.5329243,49.8200107 30.8677386,49.317775 30.8119529,48.7736821 L29.4447386,36.6365393 L31.7466671,34.5020393 L34.4252386,37.3898964 L32.13731,39.7336107 C31.7048314,40.1800393 31.7187814,40.8776107 32.1512607,41.3100393 C32.5976893,41.7425179 33.2952607,41.7285679 33.7276893,41.2960886 L36.7550464,38.1990171 C37.173575,37.7665386 37.173575,37.0968743 36.7689971,36.6644457 L32.5977114,32.1722314 C32.4023971,31.9490171 32.1233829,31.82346 31.8164257,31.80951 C31.5234543,31.7955593 31.23049,31.9071671 31.0212114,32.1024814 L29.1099257,33.8742671 L28.7611543,30.8050529 C28.4123829,27.1917671 25.9291543,24.16441 22.5390829,23.0764814 C22.8320543,22.5463457 22.9855114,21.9464814 22.9855114,21.3046957 L22.9855114,20.74666 L25.3432257,20.74666 C25.9570686,20.74666 26.4592971,20.2444314 26.4592971,19.6305886 C26.4592971,19.0167457 25.9570686,18.5145171 25.3432257,18.5145171 L22.9855114,18.5145171 L22.9855114,18.1378457 C22.9855114,17.9146314 22.97156,17.7053671 22.9297071,17.4961029 L25.5106357,14.9151743 C25.9431143,14.4826957 25.9431143,13.7711743 25.5106357,13.3387457 C25.0781571,12.9062671 24.3666357,12.9062671 23.9342071,13.3387457 L21.8136357,15.4593171 C21.4090571,15.0826457 20.9207786,14.7896743 20.3906357,14.6222457 L20.3906357,11.5111743 C20.3906357,10.8973314 19.8884071,10.3951029 19.2745643,10.3951029 C18.6607214,10.3951029 18.1584929,10.8973314 18.1584929,11.5111743 L18.1584929,14.6082457 C17.6562643,14.7617029 17.19585,15.0267743 16.8192071,15.3755314 L14.78235,13.3386743 C14.3498714,12.9061957 13.63835,12.9061957 13.2059214,13.3386743 C12.7734929,13.7711529 12.7734429,14.4826743 13.2059214,14.9151029 L15.6612786,17.37046 C15.605475,17.6215743 15.5775714,17.8726886 15.5775714,18.1377457 L15.5775714,18.4586171 C15.5217679,18.4446657 15.4799143,18.4446657 15.4241143,18.4446657 L12.0759,18.4446657 C11.4620571,18.4446657 10.9737571,18.9329443 10.9598286,19.5468086 L9.85768571,7.98180857 L10.1506571,7.98180857 C10.7644929,7.98180857 11.2667286,7.47958 11.2667286,6.86573714 C11.2667286,6.36350857 10.9319071,5.94495143 10.4854429,5.80545143 C10.5133443,5.59618714 10.527295,5.37297286 10.527295,5.16370857 C10.527295,3.16870857 9.45308071,1.29928 7.72315214,0.30878 C7.37438071,0.113465714 6.95586643,0.113465714 6.60708071,0.30878 C4.87715214,1.31320857 3.80293786,3.16870857 3.80293786,5.16370857 C3.80293786,5.38692286 3.81688857,5.59618714 3.84479,5.80545143 C3.39836143,5.94495857 3.0632205,6.37743714 3.0632205,6.86573714 C3.04955357,7.49353 3.55178286,7.98180857 4.16564714,7.98180857 L4.16571429,7.98 Z M23.0414286,53.0135714 L22.1625,52.2602143 L23.0414286,52.0091 L23.0414286,53.0135714 Z M8.97857143,22.3078571 L7.37421429,23.7029286 L7.1231,14.9972143 C7.34631429,14.9414107 7.61137857,14.8716571 7.86252857,14.81585 L8.2392,14.7181929 L8.97857143,22.3078571 Z M17.8092857,21.2475714 L17.8092857,18.1365 C17.8092857,17.3273571 18.4649786,16.6716429 19.2741429,16.6716429 C20.0833071,16.6716429 20.739,17.3273357 20.739,18.1365 L20.739,21.2475714 C20.739,22.0567143 20.0833071,22.7124286 19.2741429,22.7124286 C18.4649786,22.7124286 17.8092857,22.0567357 17.8092857,21.2475714 Z M12.0755,20.6895357 L15.4237143,20.6895357 C15.4795179,20.6895357 15.5353214,20.6895357 15.5771714,20.6755843 L15.5771714,21.24757 C15.5771714,21.7637557 15.6887786,22.2659986 15.8840929,22.7124271 L13.8472357,22.7124271 C13.5403143,22.7124271 13.24735,22.62872 12.9962357,22.4752629 L11.23845,21.38712 C11.1965971,21.3592186 11.1686957,21.3452671 11.1268429,21.3313164 L10.9873357,19.796745 C11.0989429,20.2989736 11.5453714,20.6896021 12.0754786,20.6896021 L12.0755,20.6895357 Z M8.04371429,12.4866786 C7.70889286,12.5703857 7.37407143,12.6540929 7.06714286,12.7238429 L6.92763571,7.98055714 L7.61122857,7.98055714 L8.04371429,12.4866786 Z M7.15085714,2.63739286 C7.86235,3.27913571 8.28085714,4.18596429 8.28085714,5.16253571 C8.28085714,5.31599286 8.26690643,5.46945714 8.25295571,5.60896429 L6.04874143,5.60896429 C6.03479071,5.45550714 6.02084,5.30204286 6.02084,5.16253571 C6.02084,4.18596429 6.43936857,3.26525 7.15084,2.63739286 L7.15085714,2.63739286 Z" id="Shape"></path>
                    <path d="M38.7357143,69.1964286 L5.895,69.1964286 L5.895,67.606 L35.22,67.606 C35.8338429,67.606 36.3360714,67.1037643 36.3360714,66.4899286 C36.3360714,65.8760857 35.8338429,65.3738571 35.22,65.3738571 L25.2728571,65.3738571 L25.2728571,60.6026429 C25.2728571,59.9888 24.7706286,59.4865714 24.1567857,59.4865714 C23.54295,59.4865714 23.0407143,59.9888 23.0407143,60.6026429 L23.0407143,65.3738571 L20.962,65.3738571 L20.962,63.6857857 C20.962,63.0719429 20.4597714,62.5697143 19.8459286,62.5697143 C19.2320857,62.5697143 18.7298571,63.0719429 18.7298571,63.6857857 L18.7298571,65.3738571 L11.1548571,65.3738571 L11.86635,55.5802857 L17.7954929,49.2745 C18.2140214,48.8280714 18.2000714,48.1165714 17.73969,47.6980714 C17.2932614,47.2795429 16.5817614,47.2934929 16.1632614,47.753875 L12.1314757,52.0368036 L12.4383971,47.8655179 C12.48025,47.251675 12.0198686,46.7215179 11.40604,46.6657321 C10.7921971,46.62388 10.26204,47.0842607 10.2062543,47.6980893 L8.90882571,65.3602321 L4.77939714,65.3602321 C4.16555429,65.3602321 3.66332571,65.8624607 3.66332571,66.4763036 L3.66332571,69.1967321 L1.26375429,69.1967321 C0.649911429,69.1967321 0.147682857,69.6989607 0.147682857,70.3128036 C0.147682857,70.9266464 0.649911429,71.428875 1.26375429,71.428875 L4.36082571,71.428875 C4.48638286,71.4846786 4.62589,71.5125821 4.77935429,71.5125821 L35.2200686,71.5125821 C35.3735257,71.5125821 35.51304,71.48468 35.6385971,71.428875 L38.7356686,71.428875 C39.3495114,71.428875 39.85174,70.9266464 39.85174,70.3128036 C39.85174,69.6989607 39.3634614,69.1967321 38.7356686,69.1967321 L38.7357143,69.1964286 Z" id="Path"></path>
                    <path d="M25.2735714,45.4378571 L25.2735714,38.574 C25.2735714,37.9601571 24.7713429,37.4579286 24.1575,37.4579286 C23.5436643,37.4579286 23.0414286,37.9601571 23.0414286,38.574 L23.0414286,45.4378571 C23.0414286,46.0517 23.5436643,46.5539286 24.1575,46.5539286 C24.7713429,46.5539286 25.2735714,46.0517 25.2735714,45.4378571 Z" id="Path"></path>
                </g>
            </g>
        </g>
    </g>
</svg>

<?xml version="1.0" encoding="UTF-8" standalone="no"?>
<svg
   width="40"
   height="64"
   viewBox="0 0 40 64"
   version="1.1"
   id="svg14"
   sodipodi:docname="Liberty.svg"
   inkscape:version="1.1.1 (3bf5ae0d25, 2021-09-20)"
   xmlns:inkscape="http://www.inkscape.org/namespaces/inkscape"
   xmlns:sodipodi="http://sodipodi.sourceforge.net/DTD/sodipodi-0.dtd"
   xmlns="http://www.w3.org/2000/svg"
   xmlns:svg="http://www.w3.org/2000/svg"
   xmlns:rdf="http://www.w3.org/1999/02/22-rdf-syntax-ns#"
   xmlns:cc="http://creativecommons.org/ns#"
   xmlns:dc="http://purl.org/dc/elements/1.1/">
  <defs
     id="defs18" />
  <sodipodi:namedview
     id="namedview16"
     pagecolor="#ffffff"
     bordercolor="#666666"
     borderopacity="1.0"
     inkscape:pageshadow="2"
     inkscape:pageopacity="0.0"
     inkscape:pagecheckerboard="0"
     showgrid="false"
     inkscape:zoom="3.7638889"
     inkscape:cx="-13.01845"
     inkscape:cy="15.409594"
     inkscape:window-width="1366"
     inkscape:window-height="712"
     inkscape:window-x="0"
     inkscape:window-y="0"
     inkscape:window-maximized="1"
     inkscape:current-layer="svg14"
     height="71px" />
  <title
     id="title2">Liberty</title>
  <g
     id="⌚️-iOS-Clock-App"
     stroke="none"
     stroke-width="1"
     fill="none"
     fill-rule="evenodd"
     transform="matrix(0.83198247,0,0,0.77631984,3.3465748,4.960773)">
    <g
       id="iOS-Clock---Light"
       transform="translate(-44,-692)"
       fill="#eceff5"
       fill-rule="nonzero">
      <g
         id="New-York"
         transform="translate(20,612)">
        <g
           id="Liberty"
           transform="translate(24,80)">
          <path
             d="m 11.755,41.922143 c -0.613843,-0.04185 -1.144,0.418528 -1.199786,1.032357 l -0.09766,1.255571 c -0.04185,0.613843 0.418529,1.144 1.032357,1.199786 h 0.08371 c 0.585936,0 1.074215,-0.446428 1.116072,-1.032357 l 0.09766,-1.255571 c 0.04185,-0.613843 -0.418532,-1.157929 -1.03236,-1.199786 z"
             id="Path" />
          <path
             d="M 4.1657143,7.98 H 4.69585 L 5.1980786,25.614286 5.0446214,25.739843 C 4.7098,26.032814 4.5842429,26.507129 4.72375,26.9257 c 1.6462143,5.078143 2.9855,6.933571 6.375571,8.524286 l -0.292971,4.101571 c -0.04185,0.613843 0.418529,1.144 1.032357,1.199786 h 0.08371 c 0.585936,0 1.074215,-0.446429 1.116072,-1.032357 L 13.401207,34.8362 c 0.0279,-0.474329 -0.237164,-0.920786 -0.669643,-1.102143 C 9.7460643,32.464557 8.6299929,31.4182 7.0954214,26.939986 L 10.080921,24.3312 10.778464,23.717357 11.83875,24.37305 c 0.613843,0.376671 1.311357,0.571986 2.022857,0.571986 h 5.050214 l -5.203714,6.584857 c -0.376671,0.488278 -0.292971,1.185857 0.181364,1.5625 0.209265,0.167414 0.446429,0.237164 0.697543,0.237164 0.334822,0 0.655693,-0.139507 0.878929,-0.418528 l 4.450357,-5.636143 -0.251114,4.896785 c -0.0279,0.613843 0.446428,1.144 1.060285,1.171858 h 0.0279 0.01395 0.06976 c 0.571985,-0.01395 1.060285,-0.474329 1.088142,-1.060286 l 0.334822,-7.003357 c 2.343714,0.920785 4.045786,3.111071 4.282928,5.678 v 0.0279 l 0.558036,4.882786 c -0.0558,0.153457 -0.06975,0.320871 -0.04185,0.488278 l 1.018429,8.063572 0.404578,3.599357 -7.422142,2.218214 0.613842,-12.611428 0.06976,-1.325357 c 0.181364,-0.418529 0.08371,-0.920786 -0.265065,-1.241643 -0.209264,-0.195315 -0.474328,-0.292972 -0.739428,-0.306922 h -0.04185 c -0.460379,-0.0279 -0.864929,0.237165 -1.060286,0.627793 l -3.278428,3.487714 c -0.418529,0.446429 -0.404579,1.157929 0.0558,1.576429 0.209265,0.195314 0.488279,0.306921 0.767286,0.306921 0.292971,0 0.599886,-0.111607 0.809143,-0.348771 L 19.371941,38.923943 18.744148,51.7168 v 0.01395 0.09766 0.0279 c 0,0.04185 0.01395,0.08371 0.01395,0.125557 v 0.01395 0.0279 c 0,0.0279 0.01395,0.0558 0.0279,0.08371 v 0.01395 c 0,0.01395 0,0.01395 0.01395,0.0279 0.01395,0.0279 0.01395,0.0558 0.0279,0.08371 0,0.01395 0,0.01395 0.01395,0.0279 0,0 0,0.01395 0.01395,0.01395 0.01395,0.0279 0.0279,0.0558 0.04185,0.08371 0,0 0,0.01395 0.01395,0.01395 0.04185,0.06976 0.09766,0.139507 0.153457,0.195314 l 0.01395,0.01395 c 0.01395,0.01395 0.01395,0.01395 0.0279,0.0279 l 0.04185,0.04185 3.222643,2.748357 c -1.953143,1.409072 -5.998858,4.296857 -9.012143,6.487143 -0.502229,0.362722 -0.613843,1.060286 -0.251115,1.5625 0.223215,0.306922 0.558036,0.460379 0.906786,0.460379 0.223214,0 0.460379,-0.06976 0.655693,-0.209265 4.101571,-2.957571 10.100714,-7.268571 10.156429,-7.31 0.0279,-0.01395 0.0558,-0.04185 0.06976,-0.0558 0.01395,-0.01395 0.01395,-0.01395 0.0279,-0.0279 0.0279,-0.01395 0.04185,-0.04185 0.0558,-0.0558 0.01395,-0.01395 0.01395,-0.01395 0.0279,-0.0279 0.0279,-0.0279 0.0558,-0.06976 0.06975,-0.09766 0,-0.01395 0.01395,-0.01395 0.01395,-0.0279 0.01395,-0.0279 0.0279,-0.0558 0.0558,-0.08371 0,-0.01395 0.01395,-0.01395 0.01395,-0.0279 0.01395,-0.0279 0.0279,-0.0558 0.04185,-0.08371 0,-0.01395 0.01395,-0.0279 0.01395,-0.0279 0.01395,-0.0279 0.01395,-0.0558 0.0279,-0.08371 0,-0.01395 0,-0.0279 0.01395,-0.0279 0.01395,-0.0279 0.01395,-0.06975 0.01395,-0.111607 v -0.01395 c 0,-0.04185 0.01395,-0.08371 0.01395,-0.125557 v -0.01395 -4.059714 l 1.339285,-0.376672 0.655693,11.425714 c 0.0279,0.599886 0.530136,1.046286 1.116072,1.046286 h 0.06975 C 29.082,63.491535 29.5563,62.975349 29.514443,62.361528 L 28.83085,50.322242 30.016708,49.973471 c 0.516185,-0.153457 0.851,-0.655693 0.795214,-1.199786 l -1.367214,-12.137143 2.301928,-2.1345 2.678572,2.887857 -2.287929,2.343715 c -0.432479,0.446428 -0.418529,1.144 0.01395,1.576428 0.446428,0.432479 1.144,0.418529 1.576428,-0.01395 l 3.027357,-3.097072 c 0.418529,-0.432478 0.418529,-1.102143 0.01395,-1.534571 l -4.171286,-4.492215 c -0.195314,-0.223214 -0.474328,-0.348771 -0.781285,-0.362721 -0.292972,-0.01395 -0.585936,0.09766 -0.795215,0.292971 l -1.911285,1.771786 -0.348772,-3.069214 c -0.348771,-3.613286 -2.832,-6.640643 -6.222071,-7.728572 0.292971,-0.530135 0.446428,-1.13 0.446428,-1.771785 V 20.74666 h 2.357715 c 0.613843,0 1.116071,-0.502229 1.116071,-1.116071 0,-0.613843 -0.502228,-1.116072 -1.116071,-1.116072 h -2.357715 v -0.376671 c 0,-0.223215 -0.01395,-0.432479 -0.0558,-0.641743 l 2.580929,-2.580929 c 0.432478,-0.432478 0.432478,-1.144 0,-1.576428 -0.432479,-0.432479 -1.144,-0.432479 -1.576429,0 l -2.120571,2.120571 c -0.404579,-0.376671 -0.892857,-0.669643 -1.423,-0.837071 v -3.111072 c 0,-0.613843 -0.502229,-1.116071 -1.116072,-1.116071 -0.613843,0 -1.116071,0.502228 -1.116071,1.116071 v 3.097072 c -0.502229,0.153457 -0.962643,0.418528 -1.339286,0.767285 L 14.78235,13.338674 c -0.432479,-0.432478 -1.144,-0.432478 -1.576429,0 -0.432428,0.432479 -0.432478,1.144 0,1.576429 l 2.455358,2.455357 c -0.0558,0.251114 -0.08371,0.502229 -0.08371,0.767286 v 0.320871 c -0.0558,-0.01395 -0.09766,-0.01395 -0.153457,-0.01395 H 12.0759 c -0.613843,0 -1.102143,0.488278 -1.116071,1.102143 L 9.8576857,7.9818086 h 0.2929713 c 0.613836,0 1.116072,-0.5022286 1.116072,-1.1160715 0,-0.5022285 -0.334822,-0.9207857 -0.781286,-1.0602857 0.0279,-0.2092643 0.04185,-0.4324785 0.04185,-0.6417428 0,-1.995 -1.0742143,-3.8644286 -2.8041429,-4.8549286 -0.3487714,-0.19531429 -0.7672857,-0.19531429 -1.1160714,0 -1.7299286,1.0044286 -2.8041428,2.8599286 -2.8041428,4.8549286 0,0.2232143 0.013951,0.4324785 0.041852,0.6417428 C 3.3983614,5.9449586 3.0632205,6.3774371 3.0632205,6.8657371 3.0495536,7.49353 3.5517829,7.9818086 4.1656471,7.9818086 Z M 23.041429,53.013571 22.1625,52.260214 23.041429,52.0091 Z M 8.9785714,22.307857 7.3742143,23.702929 7.1231,14.997214 c 0.2232143,-0.0558 0.4882786,-0.125557 0.7394286,-0.181364 L 8.2392,14.718193 Z M 17.809286,21.247571 V 18.1365 c 0,-0.809143 0.655693,-1.464857 1.464857,-1.464857 0.809164,0 1.464857,0.655693 1.464857,1.464857 v 3.111071 c 0,0.809143 -0.655693,1.464858 -1.464857,1.464858 -0.809164,0 -1.464857,-0.655693 -1.464857,-1.464858 z M 12.0755,20.689536 h 3.348214 c 0.0558,0 0.111607,0 0.153457,-0.01395 v 0.571986 c 0,0.516186 0.111608,1.018429 0.306922,1.464857 h -2.036857 c -0.306922,0 -0.599886,-0.08371 -0.851,-0.237164 L 11.23845,21.38712 c -0.04185,-0.0279 -0.06975,-0.04185 -0.111607,-0.0558 l -0.139507,-1.534571 c 0.111607,0.502229 0.558035,0.892857 1.088143,0.892857 z M 8.0437143,12.486679 c -0.3348214,0.08371 -0.6696429,0.167414 -0.9765714,0.237164 L 6.9276357,7.9805571 H 7.6112286 Z M 7.1508571,2.6373929 c 0.7114929,0.6417428 1.13,1.5485714 1.13,2.5251428 0,0.1534572 -0.013951,0.3069214 -0.027901,0.4464286 H 6.0487414 C 6.0347907,5.4555071 6.02084,5.3020429 6.02084,5.1625357 c 0,-0.9765714 0.4185286,-1.8972857 1.13,-2.5251428 z"
             id="Shape" />
          <path
             d="M 38.735714,69.196429 H 5.895 V 67.606 H 35.22 c 0.613843,0 1.116071,-0.502236 1.116071,-1.116071 0,-0.613843 -0.502228,-1.116072 -1.116071,-1.116072 h -9.947143 v -4.771214 c 0,-0.613843 -0.502228,-1.116072 -1.116071,-1.116072 -0.613836,0 -1.116072,0.502229 -1.116072,1.116072 v 4.771214 H 20.962 v -1.688071 c 0,-0.613843 -0.502229,-1.116072 -1.116071,-1.116072 -0.613843,0 -1.116072,0.502229 -1.116072,1.116072 v 1.688071 h -7.575 L 11.86635,55.580286 17.795493,49.2745 c 0.418528,-0.446429 0.404578,-1.157929 -0.0558,-1.576429 -0.446429,-0.418528 -1.157929,-0.404578 -1.576429,0.0558 L 12.131479,52.0368 12.4384,47.865514 c 0.04185,-0.613843 -0.418528,-1.144 -1.032357,-1.199786 -0.613843,-0.04185 -1.144,0.418529 -1.199786,1.032357 L 8.9088257,65.360232 H 4.7793971 c -0.6138428,0 -1.1160714,0.502229 -1.1160714,1.116072 v 2.720428 H 1.2637543 c -0.61384287,0 -1.11607144,0.502229 -1.11607144,1.116072 0,0.613842 0.50222857,1.116071 1.11607144,1.116071 h 3.0970714 c 0.1255572,0.0558 0.2650643,0.08371 0.4185286,0.08371 H 35.220069 c 0.153457,0 0.292971,-0.0279 0.418528,-0.08371 h 3.097072 c 0.613842,0 1.116071,-0.502229 1.116071,-1.116071 0,-0.613843 -0.488279,-1.116072 -1.116071,-1.116072 z"
             id="path6" />
          <path
             d="M 25.273571,45.437857 V 38.574 c 0,-0.613843 -0.502228,-1.116071 -1.116071,-1.116071 -0.613836,0 -1.116071,0.502228 -1.116071,1.116071 v 6.863857 c 0,0.613843 0.502235,1.116072 1.116071,1.116072 0.613843,0 1.116071,-0.502229 1.116071,-1.116072 z"
             id="path8" />
        </g>
      </g>
    </g>
  </g>
  <metadata
     id="metadata847">
    <rdf:RDF>
      <cc:Work
         rdf:about="">
        <dc:title>Liberty</dc:title>
      </cc:Work>
    </rdf:RDF>
  </metadata>
</svg>
